X: 43247
T: Wolfes
R: reel
M: 4/4
K: Eminor
|:Bege BAGA|Bege fgfe|Bege BAGA|BcBA GE E2|
Be e2 BAGA|Bege fgfe|Bege BAGA|BcBA GE E2||
|:eB3 efgf|ec3 efge|fd3 fd3|fdad BdAd|
eB3 efgf|ec3 efge|efge fgaf|gfed e4:|

